dist/images/linkedin.svg

<svg width="18" height="18" viewBox="0 0 18 18" fill="none" xmlns="http://www.w3.org/2000/svg">
<path d="M8.99998 0C4.0294 0 0 4.0294 0 8.99998C0 13.9706 4.0294 18 8.99998 18C13.9706 18 18 13.9706 18 8.99998C18 4.0294 13.9705 0 8.99998 0ZM6.59877 13.3511H4.62273V6.96705H6.59877V13.3511ZM5.60133 6.13101C4.95598 6.13101 4.43281 5.60358 4.43281 4.95305C4.43281 4.30246 4.95605 3.77506 5.60133 3.77506C6.24661 3.77506 6.76979 4.30246 6.76979 4.95305C6.76982 5.60361 6.24665 6.13101 5.60133 6.13101ZM14.004 13.3511H12.0375V9.99998C12.0375 9.08088 11.6884 8.56783 10.9616 8.56783C10.1707 8.56783 9.75746 9.10217 9.75746 9.99998V13.3511H7.86222V6.96705H9.75746V7.82687C9.75746 7.82687 10.3276 6.77232 11.6812 6.77232C13.0349 6.77232 14.004 7.59888 14.004 9.3088L14.004 13.3511Z" fill="#589574"/>
</svg>

<svg width="18" height="18" viewBox="0 0 18 18" fill="none" xmlns="http://www.w3.org/2000/svg"><path d="M9 0a9 9 0 100 18A9 9 0 009 0zM6.599 13.351H4.623V6.967h1.976v6.384zM5.6 6.131a1.173 1.173 0 01-1.168-1.178c0-.65.523-1.178 1.168-1.178.646 0 1.169.527 1.169 1.178 0 .65-.523 1.178-1.169 1.178zm8.403 7.22h-1.966V10c0-.92-.35-1.432-1.076-1.432-.791 0-1.205.534-1.205 1.432v3.351H7.862V6.967h1.895v.86s.57-1.055 1.924-1.055 2.323.827 2.323 2.537v4.042z" fill="#589574"/></svg>
